src/topics/icons/hipchat.svg

<svg height="239" preserveAspectRatio="xMidYMid" viewBox="0 0 256 239" width="256" xmlns="http://www.w3.org/2000/svg"><g fill="#274970"><path d="m197.278255 134.702545c-.003103-2.670157-2.169019-5.071903-5.081213-5.071903-1.176048 0-2.378472.400291-3.365236 1.286206-12.854303 11.549479-34.729115 21.764655-61.185551 21.832922h-.107055c-26.411442-.068267-47.6594424-10.691491-61.187103-21.829818-.8564364-.704388-2.4420849-1.18691-3.4691879-1.18691-3.1433697 0-4.9710546 2.674813-4.9741576 5.616485-.0015515 2.269867 1.5887515 4.165818 2.8982303 6.131588 7.5838061 11.385018 31.1078788 30.718449 66.5088002 30.718449h.553891c35.399369 0 58.923442-19.333431 66.5088-30.718449 1.309479-1.96577 2.901333-4.508703 2.899782-6.77857"/><path d="m198.32863 212.745309c.400291.53217.612849.985212.612849 1.477043 0 .738521-.701285 1.245866-1.582546 1.245866-6.392242 0-26.087175-10.612363-36.4544-19.358254-1.419636-1.196219-3.405575-1.635297-6.224678-1.020897-8.648146 1.881988-17.719855 2.896678-27.083249 2.896678-58.6534787 0-106.2043151-39.256436-106.2043151-87.697842 0-48.4165818 47.5508364-87.6683636 106.2043151-87.6683636 58.648824 0 106.196558 39.2517818 106.196558 87.6683636 0 28.904727-16.933237 54.534206-43.049891 70.510158-1.745455 1.067442-3.605721 3.075103-3.605721 5.587006 0 5.155685 4.845381 17.937066 11.191078 26.360242zm34.147297 10.7008c-9.012751-5.133964-17.566254-13.814691-21.485382-25.711709-.768-2.331927-.085333-4.217018 1.712873-5.607176 26.074764-20.158836 42.482037-49.426618 42.482037-82.020848 0-60.7914669-57.125237-110.07224267-127.587297-110.07224267-70.4698186 0-127.598158 49.28077577-127.598158 110.07224267 0 60.820945 57.1283394 110.11103 127.598158 110.11103 9.20669 0 18.183757-.842473 26.838109-2.442085 2.124024-.392533 3.85086.105503 5.264291.974352 17.462303 10.714763 43.465697 19.702691 66.269866 19.702691 7.346424 0 10.171734-4.6592 10.171734-8.902594 0-2.736873-1.483249-4.860897-3.666231-6.103661z"/></g></svg>

<?xml version="1.0" encoding="UTF-8" standalone="no"?>
<svg width="256px" height="239px" viewBox="0 0 256 239" version="1.1" xmlns="http://www.w3.org/2000/svg" xmlns:xlink="http://www.w3.org/1999/xlink" preserveAspectRatio="xMidYMid">
	<g fill="#274970">
		<path d="M197.278255,134.702545 C197.275152,132.032388 195.109236,129.630642 192.197042,129.630642 C191.020994,129.630642 189.81857,130.030933 188.831806,130.916848 C175.977503,142.466327 154.102691,152.681503 127.646255,152.74977 L127.5392,152.74977 C101.127758,152.681503 79.8797576,142.058279 66.352097,130.919952 C65.4956606,130.215564 63.9100121,129.733042 62.8829091,129.733042 C59.7395394,129.733042 57.9118545,132.407855 57.9087515,135.349527 C57.9072,137.619394 59.497503,139.515345 60.8069818,141.481115 C68.3907879,152.866133 91.9148606,172.199564 127.315782,172.199564 L127.869673,172.199564 C163.269042,172.199564 186.793115,152.866133 194.378473,141.481115 C195.687952,139.515345 197.279806,136.972412 197.278255,134.702545"></path>
		<path d="M198.32863,212.745309 C198.728921,213.277479 198.941479,213.730521 198.941479,214.222352 C198.941479,214.960873 198.240194,215.468218 197.358933,215.468218 C190.966691,215.468218 171.271758,204.855855 160.904533,196.109964 C159.484897,194.913745 157.498958,194.474667 154.679855,195.089067 C146.031709,196.971055 136.96,197.985745 127.596606,197.985745 C68.9431273,197.985745 21.3922909,158.729309 21.3922909,110.287903 C21.3922909,61.8713212 68.9431273,22.6195394 127.596606,22.6195394 C186.24543,22.6195394 233.793164,61.8713212 233.793164,110.287903 C233.793164,139.19263 216.859927,164.822109 190.743273,180.798061 C188.997818,181.865503 187.137552,183.873164 187.137552,186.385067 C187.137552,191.540752 191.982933,204.322133 198.32863,212.745309 L198.32863,212.745309 Z M232.475927,223.446109 C223.463176,218.312145 214.909673,209.631418 210.990545,197.7344 C210.222545,195.402473 210.905212,193.517382 212.703418,192.127224 C238.778182,171.968388 255.185455,142.700606 255.185455,110.106376 C255.185455,49.3149091 198.060218,0.0341333333 127.598158,0.0341333333 C57.1283394,0.0341333333 0,49.3149091 0,110.106376 C0,170.927321 57.1283394,220.217406 127.598158,220.217406 C136.804848,220.217406 145.781915,219.374933 154.436267,217.775321 C156.560291,217.382788 158.287127,217.880824 159.700558,218.749673 C177.162861,229.464436 203.166255,238.452364 225.970424,238.452364 C233.316848,238.452364 236.142158,233.793164 236.142158,229.54977 C236.142158,226.812897 234.658909,224.688873 232.475927,223.446109 L232.475927,223.446109 Z"></path>
	</g>
</svg>
